src/assets-svg/settingsicon.svg

<svg width="24" height="24" viewBox="0 0 24 24" fill="none" xmlns="http://www.w3.org/2000/svg">
<path d="M23.4605 15.0506L21.6246 13.5505C21.7115 13.0415 21.7563 12.5219 21.7563 12.0022C21.7563 11.4825 21.7115 10.9628 21.6246 10.4539L23.4605 8.95375C23.599 8.84045 23.6981 8.68956 23.7447 8.52112C23.7912 8.35269 23.783 8.1747 23.7212 8.01082L23.696 7.94118C23.1905 6.59115 22.4337 5.33966 21.462 4.24717L21.4116 4.19092C21.2937 4.05846 21.1366 3.96324 20.961 3.91781C20.7853 3.87238 20.5994 3.87887 20.4278 3.93643L18.149 4.71059C17.3081 4.05162 16.3691 3.53194 15.3544 3.16763L14.9144 0.890687C14.8812 0.719359 14.7942 0.561742 14.6651 0.438775C14.5359 0.315807 14.3706 0.233311 14.1912 0.202246L14.1156 0.188852C12.6552 -0.0629508 11.1192 -0.0629508 9.6589 0.188852L9.58322 0.202246C9.40382 0.233311 9.23856 0.315807 9.10939 0.438775C8.98023 0.561742 8.89326 0.719359 8.86006 0.890687L8.4172 3.17835C7.41064 3.54273 6.47328 4.06214 5.6423 4.71595L3.3467 3.93643C3.17507 3.87842 2.98902 3.87169 2.81329 3.91715C2.63756 3.9626 2.48046 4.05809 2.36287 4.19092L2.31242 4.24717C1.3419 5.34044 0.58519 6.59172 0.0784877 7.94118L0.0532613 8.01082C-0.0728705 8.34567 0.0308379 8.72069 0.313934 8.95375L2.17228 10.4699C2.08538 10.9735 2.04334 11.4879 2.04334 11.9995C2.04334 12.5138 2.08538 13.0281 2.17228 13.5291L0.313934 15.0452C0.175457 15.1585 0.0763475 15.3094 0.0297839 15.4779C-0.0167796 15.6463 -0.00859098 15.8243 0.0532613 15.9882L0.0784877 16.0578C0.585818 17.4079 1.337 18.6535 2.31242 19.7518L2.36287 19.8081C2.48075 19.9405 2.63785 20.0357 2.81348 20.0812C2.98911 20.1266 3.17501 20.1201 3.3467 20.0626L5.6423 19.283C6.47757 19.9393 7.41095 20.459 8.4172 20.8206L8.86006 23.1083C8.89326 23.2796 8.98023 23.4372 9.10939 23.5602C9.23856 23.6832 9.40382 23.7657 9.58322 23.7967L9.6589 23.8101C11.1326 24.0633 12.6418 24.0633 14.1156 23.8101L14.1912 23.7967C14.3706 23.7657 14.5359 23.6832 14.6651 23.5602C14.7942 23.4372 14.8812 23.2796 14.9144 23.1083L15.3544 20.8314C16.3687 20.468 17.313 19.9466 18.149 19.2884L20.4278 20.0626C20.5994 20.1206 20.7854 20.1273 20.9612 20.0818C21.1369 20.0364 21.294 19.9409 21.4116 19.8081L21.462 19.7518C22.4375 18.6508 23.1886 17.4079 23.696 16.0578L23.7212 15.9882C23.8473 15.6587 23.7436 15.2837 23.4605 15.0506ZM19.6345 10.7699C19.7046 11.1744 19.741 11.5896 19.741 12.0049C19.741 12.4201 19.7046 12.8353 19.6345 13.2398L19.4495 14.3139L21.5433 16.0257C21.2259 16.7245 20.8252 17.3861 20.3493 17.9972L17.7482 17.1159L16.868 17.807C16.1981 18.3321 15.4526 18.7446 14.6453 19.0339L13.5774 19.417L13.0757 22.0154C12.284 22.1011 11.4848 22.1011 10.6932 22.0154L10.1915 19.4116L9.13195 19.0232C8.33311 18.7339 7.59034 18.3214 6.92604 17.799L6.04592 17.1052L3.42799 17.9946C2.95149 17.3811 2.55347 16.7195 2.23394 16.023L4.35015 14.2952L4.16796 13.2237C4.10069 12.8246 4.06425 12.412 4.06425 12.0049C4.06425 11.595 4.09789 11.1852 4.16796 10.786L4.35015 9.71451L2.23394 7.98671C2.55067 7.28756 2.95149 6.62858 3.42799 6.01515L6.04592 6.9045L6.92604 6.2107C7.59034 5.68834 8.33311 5.27581 9.13195 4.98651L10.1943 4.60344L10.696 1.99969C11.4836 1.91397 12.288 1.91397 13.0785 1.99969L13.5802 4.59809L14.6481 4.98115C15.4526 5.27045 16.2009 5.68298 16.8708 6.20802L17.751 6.89914L20.3521 6.01783C20.8286 6.63126 21.2266 7.29292 21.5461 7.98939L19.4523 9.70112L19.6345 10.7699ZM11.89 7.02236C9.16558 7.02236 6.95688 9.13322 6.95688 11.737C6.95688 14.3407 9.16558 16.4516 11.89 16.4516C14.6145 16.4516 16.8232 14.3407 16.8232 11.737C16.8232 9.13322 14.6145 7.02236 11.89 7.02236ZM14.11 13.8586C13.8188 14.1376 13.4728 14.3589 13.0918 14.5097C12.7108 14.6605 12.3024 14.7378 11.89 14.7372C11.052 14.7372 10.2643 14.4238 9.67011 13.8586C9.37811 13.5803 9.14656 13.2496 8.98878 12.8855C8.831 12.5214 8.75011 12.1311 8.75075 11.737C8.75075 10.936 9.07869 10.1833 9.67011 9.6154C10.2643 9.0475 11.052 8.73677 11.89 8.73677C12.7281 8.73677 13.5157 9.0475 14.11 9.6154C14.4019 9.89366 14.6335 10.2244 14.7913 10.5885C14.9491 10.9526 15.03 11.3429 15.0293 11.737C15.0293 12.5379 14.7014 13.2907 14.11 13.8586Z" fill="#F5FAFF"/>
</svg>

<svg width="24" height="24" fill="none" xmlns="http://www.w3.org/2000/svg"><path d="m23.46 15.05-1.835-1.5a9.215 9.215 0 0 0 0-3.096l1.835-1.5a.854.854 0 0 0 .285-.433.823.823 0 0 0-.024-.51l-.025-.07a11.772 11.772 0 0 0-2.234-3.694l-.05-.056a.907.907 0 0 0-.451-.273.94.94 0 0 0-.533.018l-2.279.775a9.998 9.998 0 0 0-2.795-1.543L14.914.89a.847.847 0 0 0-.249-.452.913.913 0 0 0-.474-.237L14.116.19a13.241 13.241 0 0 0-4.457 0l-.076.013A.913.913 0 0 0 9.11.44.847.847 0 0 0 8.86.89l-.443 2.287a9.981 9.981 0 0 0-2.775 1.538l-2.295-.78a.937.937 0 0 0-.534-.019.903.903 0 0 0-.45.274l-.05.056A11.832 11.832 0 0 0 .077 7.941l-.025.07a.836.836 0 0 0 .26.943l1.86 1.516a9.017 9.017 0 0 0-.13 1.53c0 .514.042 1.028.13 1.53l-1.86 1.515a.854.854 0 0 0-.283.433.822.822 0 0 0 .023.51l.025.07a11.801 11.801 0 0 0 2.234 3.694l.05.056a.907.907 0 0 0 .451.273.94.94 0 0 0 .534-.018l2.295-.78a9.912 9.912 0 0 0 2.775 1.538l.443 2.287c.033.172.12.33.25.452.129.123.294.206.473.237l.076.013a13.17 13.17 0 0 0 4.457 0l.075-.013a.912.912 0 0 0 .474-.237.848.848 0 0 0 .25-.452l.44-2.277a9.932 9.932 0 0 0 2.794-1.543l2.279.775a.936.936 0 0 0 .533.019.903.903 0 0 0 .45-.274l.051-.056a11.832 11.832 0 0 0 2.234-3.694l.025-.07a.83.83 0 0 0-.26-.937Zm-3.826-4.28a7.25 7.25 0 0 1 0 2.47l-.184 1.074 2.093 1.712a9.817 9.817 0 0 1-1.194 1.971l-2.6-.881-.881.691a7.926 7.926 0 0 1-2.223 1.227l-1.068.383-.501 2.598c-.792.086-1.591.086-2.383 0l-.502-2.603-1.06-.389A7.934 7.934 0 0 1 6.927 17.8l-.88-.694-2.618.89a10.024 10.024 0 0 1-1.194-1.972l2.116-1.728-.182-1.071a7.379 7.379 0 0 1-.104-1.22c0-.409.034-.819.104-1.218l.182-1.071-2.116-1.728c.317-.7.717-1.358 1.194-1.972l2.618.89.88-.694a7.935 7.935 0 0 1 2.206-1.224l1.062-.384L10.696 2a11.069 11.069 0 0 1 2.383 0l.501 2.598 1.068.383c.805.29 1.553.702 2.223 1.227l.88.691 2.601-.881a10.02 10.02 0 0 1 1.194 1.971l-2.094 1.712.182 1.069ZM11.89 7.022c-2.724 0-4.933 2.111-4.933 4.715 0 2.604 2.209 4.715 4.933 4.715 2.724 0 4.933-2.111 4.933-4.715 0-2.604-2.209-4.715-4.933-4.715Zm2.22 6.837c-.291.279-.637.5-1.018.65-.381.152-.79.229-1.202.228a3.203 3.203 0 0 1-2.22-.878 2.985 2.985 0 0 1-.681-.973 2.875 2.875 0 0 1-.238-1.149c0-.801.328-1.554.92-2.122a3.191 3.191 0 0 1 2.219-.878c.838 0 1.626.31 2.22.878.292.279.524.61.681.973.158.365.239.755.238 1.149 0 .8-.328 1.554-.919 2.122Z" fill="#F5FAFF"/></svg>
